polaris-icons/icons/new-icons/CameraMajor.svg

<svg width="20" height="20" viewBox="0 0 20 20" fill="none" xmlns="http://www.w3.org/2000/svg">
<path fill-rule="evenodd" clip-rule="evenodd" d="M10 7.25C8.20507 7.25 6.75 8.70507 6.75 10.5C6.75 12.2949 8.20507 13.75 10 13.75C11.7949 13.75 13.25 12.2949 13.25 10.5C13.25 8.70507 11.7949 7.25 10 7.25ZM8.25 10.5C8.25 9.5335 9.0335 8.75 10 8.75C10.9665 8.75 11.75 9.5335 11.75 10.5C11.75 11.4665 10.9665 12.25 10 12.25C9.0335 12.25 8.25 11.4665 8.25 10.5Z" fill="#4A4A4A"/>
<path fill-rule="evenodd" clip-rule="evenodd" d="M8.58387 4C7.56183 4 6.6241 4.5668 6.14903 5.47171L5.80341 6.13003C5.68398 6.35751 5.44824 6.5 5.19132 6.5C3.98109 6.5 3 7.48109 3 8.69132V13.25C3 14.7688 4.23122 16 5.75 16H14.25C15.7688 16 17 14.7688 17 13.25V8.69132C17 7.48109 16.0189 6.5 14.8087 6.5C14.5518 6.5 14.316 6.35751 14.1966 6.13003L13.851 5.47171C13.3759 4.5668 12.4382 4 11.4161 4H8.58387ZM7.47712 6.16896C7.69307 5.75764 8.11931 5.5 8.58387 5.5H11.4161C11.8807 5.5 12.3069 5.75764 12.5229 6.16896L12.8685 6.82728C13.2471 7.54835 13.9943 8 14.8087 8C15.1905 8 15.5 8.30951 15.5 8.69132V13.25C15.5 13.9404 14.9404 14.5 14.25 14.5H5.75C5.05964 14.5 4.5 13.9404 4.5 13.25V8.69132C4.5 8.30951 4.80951 8 5.19132 8C6.00572 8 6.75294 7.54835 7.1315 6.82728L7.47712 6.16896Z" fill="#4A4A4A"/>
</svg>

<svg viewBox="0 0 20 20" xmlns="http://www.w3.org/2000/svg"><path fill-rule="evenodd" d="M10 7.25a3.25 3.25 0 1 0 0 6.5 3.25 3.25 0 0 0 0-6.5Zm-1.75 3.25a1.75 1.75 0 1 1 3.5 0 1.75 1.75 0 0 1-3.5 0Z" fill="#5C5F62"/><path fill-rule="evenodd" d="M8.584 4a2.75 2.75 0 0 0-2.435 1.472l-.346.658a.691.691 0 0 1-.612.37c-1.21 0-2.191.981-2.191 2.191v4.559a2.75 2.75 0 0 0 2.75 2.75h8.5a2.75 2.75 0 0 0 2.75-2.75v-4.559c0-1.21-.981-2.191-2.191-2.191a.691.691 0 0 1-.612-.37l-.346-.658a2.75 2.75 0 0 0-2.435-1.472h-2.832Zm-1.107 2.169a1.25 1.25 0 0 1 1.107-.669h2.832c.465 0 .89.258 1.107.669l.345.658a2.191 2.191 0 0 0 1.94 1.173c.383 0 .692.31.692.691v4.559c0 .69-.56 1.25-1.25 1.25h-8.5c-.69 0-1.25-.56-1.25-1.25v-4.559c0-.381.31-.691.691-.691.815 0 1.562-.452 1.94-1.173l.346-.658Z" fill="#5C5F62"/></svg>
